icons/istop.svg

<?xml version="1.0" encoding="UTF-8" standalone="no"?>
<svg width="22px" height="22px" viewBox="0 0 22 22" version="1.1" xmlns="http://www.w3.org/2000/svg" xmlns:xlink="http://www.w3.org/1999/xlink">
    <!-- Generator: Sketch 3.6.1 (26313) - http://www.bohemiancoding.com/sketch -->
    <title>istop</title>
    <desc>Created with Sketch.</desc>
    <defs></defs>
    <g id="Page-1" stroke="none" stroke-width="1" fill="none" fill-rule="evenodd">
        <g id="istop" fill="#000000">
            <path d="M3.33928571,22 L0,22 L0,0 L3.33928571,0 L0,0 L3.21839719e-07,6.67857143 L6.67857143,0 L3.33928571,0 L22,0 L15.3260324,0.000203813825 L22,6.67417177 L22,22 L18.6607143,22 L15.3214286,22 L21.9999997,15.3214286 L22,22 L18.6607143,22 L3.33928571,22 L6.67857143,22 L3.21839719e-07,15.3214286 L0,22 L3.33928571,22 L3.33928571,22 L3.33928571,22 L3.33928571,22 Z M14.3392857,7.3508134 C14.3392857,5.50657683 12.8442366,4.01152769 11,4.01152769 C9.15576342,4.01152769 7.66071429,5.50657683 7.66071429,7.3508134 C7.66071429,9.19504998 9.15576342,10.6900991 11,10.6900991 C12.8442366,10.6900991 14.3392857,9.19504998 14.3392857,7.3508134 L14.3392857,7.3508134 Z M7.66071429,15.1302535 C7.66071429,13.2831155 9.15951608,11.7857143 11,11.7857143 C12.8442366,11.7857143 14.3392857,13.2709591 14.3392857,15.1302535 L14.3392857,22 L7.66071429,22 L7.66071429,15.1302535 L7.66071429,15.1302535 L7.66071429,15.1302535 L7.66071429,15.1302535 Z" id="Rectangle-37-Copy"></path>
        </g>
    </g>
</svg>

<?xml version="1.0" encoding="UTF-8" standalone="no"?>
<svg
   xmlns:dc="http://purl.org/dc/elements/1.1/"
   xmlns:cc="http://creativecommons.org/ns#"
   xmlns:rdf="http://www.w3.org/1999/02/22-rdf-syntax-ns#"
   xmlns:svg="http://www.w3.org/2000/svg"
   xmlns="http://www.w3.org/2000/svg"
   version="1.1"
   viewBox="0 0 22 22"
   height="22px"
   width="22px">
  <path
     d="M 3.3392857,22 0,22 0,0 3.3392857,0 0,0 3.2183972e-7,6.6785714 6.6785714,0 3.3392857,0 22,0 15.326032,2.0381382e-4 22,6.6741718 22,22 18.660714,22 15.321429,22 22,15.321429 22,22 18.660714,22 3.3392857,22 6.6785714,22 3.2183972e-7,15.321429 0,22 l 3.3392857,0 0,0 0,0 0,0 z M 14.339286,7.3508134 c 0,-1.8442366 -1.495049,-3.3392857 -3.339286,-3.3392857 -1.8442366,0 -3.3392857,1.4950491 -3.3392857,3.3392857 0,1.8442366 1.4950491,3.3392856 3.3392857,3.3392856 1.844237,0 3.339286,-1.495049 3.339286,-3.3392856 l 0,0 z M 7.6607143,15.130254 c 0,-1.847139 1.4988018,-3.34454 3.3392857,-3.34454 1.844237,0 3.339286,1.485245 3.339286,3.34454 l 0,6.869746 -6.6785717,0 0,-6.869746 0,0 0,0 0,0 z"
     style="fill-rule:evenodd;" />
</svg>
